X:370
T:Mr. F.H.Bindon’s March. RH.370
R:march
S:Rev.R.Harrison’s MS,c1815,Cumbria
N:I added the z2 in the third section. PJH.
O:England
A:Temple Sowerby,Cumbria
Z:vmp.Simon Wilson. Review PJH, 2008.
M:C
L:1/8
Q:2/4=80
K:G
Bc|d2dd d2gd|c2 Ac B2G2|\
BGdB gdcB|A2AA A2Bc|!
d2dd d2gd|c2Ac B2G2|\
B/G/d/B/ g/e/d/c/B2A2|G2GG G2:|!
|:Bc|d2gd b2gd|c2Ac B2G2|\
.b.a.g.f .e.d.c.B|A2AA A2ga|!
d’4 c’2 ((3bdd)|a4 g2 ((3fdd)|\
G/B/d/g/ ((3edc) B2A2|G2GG G2:|!
|:z2|A4 G2 ((3FDD)|d4 B2 ((3BAG)|\
BGDB gdcB|A2AA A2d/4e/4f/4g/4a/4b/4c’/4d’/4|!
d’4 c’2 ((3gdd)|a4 g2 ((3fdd)|\
G/B/d/g/ ((3edc) B2A2|G2GG G2:|

